!!!OTL: DA STREITEN SICH DIE LEUT HERUM
!!!ARE: Europa, Mitteleuropa, Deutschland
!!!SCT: B0676
!!!YEM: Copyright 1995, estate of Helmut Schaffrath.
**kern
*ICvox
*Ivox
*M4/4
*k[f#]
*G:
{4dd
=1
4ee
4dd
4cc
4b
=2
4b
4a
4a
8r}
{8b
=3
4.dd
8cc
4b
4a
=4
2g
4r}
{4dd
=5
4ee
4dd
4cc
4b
=6
4b
4a
4a
8r}
{8b
=7
4.dd
8cc
4b
4a
=8
2g
4r}
{4b
=9
4a
4a
4b
4cc#
=10
4dd
4a
4ff#
8r}
{8dd
=11
4cc#
4a
4.gg
8cc#
=12
2dd
4r}
{4dd
=13
4ee
4dd
4cc
4a
=14
4b
4dd
4gg}
{4dd
=15
4.ff#
8ee
4dd
4f#
=16
2g
4r}
{4b
=17
4a
4a
4b
4cc#
=18
4dd
4a
4ff#
8r}
{8dd
=19
4cc#
4a
4.gg
8cc#
=20
2dd
4r}
{4dd
=21
4ee
4dd
4cc
4a
=22
4b
4dd
4gg}
{4dd
=23
4.ff#
8ee
4dd
4f#
=24
2g
4r}
==
!!!AGN: Moral - Lied, Vergaenglichkeit
!!!ONB: ESAC (Essen Associative Code) Database: BOEHME
!!!AMT: simple quadruple
!!!AIN: vox
!!!EED: Helmut Schaffrath
!!!EEV: 1.0
*-
